!!!COM: Fux, Johann Joseph
!!!OMD: Gradus ad Parnassum Exercise
!!!YEC: CC0 1.0 Universal (Public Domain). Mark Gotham and FourScoreAndMore.org waive all rights to this document.
**kern	**kern	**kern
*part3	*part2	*part1
*staff3	*staff2	*staff1
*I"3	*I"2	*I"1
*I'Pno	*I'Pno	*I'Pno
!!LO:LB:g=z
*clefF4	*clefGv2	*clefG2
*k[]	*k[]	*k[]
!!LO:TX:omd:t=
*M4/4	*M4/4	*M4/4
=320	=320	=320
!	!	!LO:TX:a:t=Fig. 134; Species&colon; 2,3; Modal final&colon; d; Cantus firmus&colon; 3
1D	2A/	4d/
.	.	4e/
.	2d\	4f/
.	.	4g/
=321	=321	=321
1F	2c\	4a/
.	.	4g/
.	2A/	4f/
.	.	4a/
=322	=322	=322
1E	2B\	4g/
.	.	4f/
.	2c#X\	4e/
.	.	4g/
=323	=323	=323
1D	2d\	4f/
.	.	4a/
.	2A/	4f/
.	.	4e/
=324	=324	=324
1G	2B-X\	4d/
.	.	4B-X/
.	2G/	4d/
.	.	4e/
=325	=325	=325
1F	2A/	4f/
.	.	4a/
.	2B\	4g/
.	.	4f/
!!LO:LB:g=z
=326	=326	=326
1A	2c\	4e/
.	.	4c/
.	2A/	4e/
.	.	4f/
=327	=327	=327
1G	2e\	4g/
.	.	4f/
.	2B\	4d/
.	.	4e/
=328	=328	=328
1F	2d\	4f/
.	.	4e/
.	2A/	4c/
.	.	4d/
=329	=329	=329
1E	1G	4e/
.	.	4d/
.	.	4B/
.	.	4c#X/
=330	=330	=330
1D	1A	1d
==	==	==
*-	*-	*-
!!!software: music21 v.9.7.1
!!!software: music21 v.9.7.1
!!!software: MuseScore 3.4.2
!!!RDF**kern: > = above
!!!RDF**kern: < = below
